;FLAVOR:Marlin
;TIME:6948
;Filament used: 4.42094m
;Layer height: 0.13125
;MINX:40.16
;MINY:40.161
;MINZ:0.306
;MAXX:79.839
;MAXY:79.84
;MAXZ:43.888
;Generated with Cura_SteamEngine 5.0.0
M140 S60
M105
M190 S60
M104 S205
M105
M109 S205
M82 ;absolute extrusion mode
G21;(metric values)
G90;(absolute positioning)
M82;(set extruder to absolute mode)
M107;(start with the fan off)
G28;(Home the printer)
G92 E0;(Reset the extruder to 0)
G0 Z5 E5 F500;(Move up and prime the nozzle)
G0 X-1 Z0;(Move outside the printable area)
G1 Y60 E8 F500;(Draw a priming/wiping line to the rear)
G1 X-1;(Move a little closer to the print area)
G1 Y10 E16 F500;(draw more priming/wiping)
G1 E15 F250;(Small retract)
G92 E0;(Zero the extruder)
G92 E0
G92 E0
G1 F2400 E-4.5
;LAYER_COUNT:328
;LAYER:-6
M107
G0 F7200 X40.987 Y42.161 Z0.306
;TYPE:SUPPORT-INTERFACE
G1 F2400 E0
G1 F1125 X40.683 Y42.666 E0.05999
G1 X40.449 Y43.207 E0.11998
G1 X40.293 Y43.745 E0.17699
G1 X40.2 Y44.33 E0.23728
G1 X40.164 Y44.933 E0.29876
G1 X40.16 Y75.121 E3.37117
G1 X40.198 Y75.638 E3.42393
G1 X40.271 Y76.137 E3.47526
G1 X40.442 Y76.773 E3.54229
G1 X40.649 Y77.264 E3.59652
G1 X40.947 Y77.779 E3.65708
G1 X41.302 Y78.244 E3.71662
G1 X41.711 Y78.659 E3.77592
G1 X42.158 Y79.01 E3.83376
G1 X42.671 Y79.318 E3.89466
G1 X43.21 Y79.551 E3.95443
G1 X43.726 Y79.703 E4.00917
G1 X44.341 Y79.801 E4.07256
G1 X44.931 Y79.836 E4.13271
G1 X75.119 Y79.84 E7.20512
G1 X75.651 Y79.79 E7.25951
G1 X76.242 Y79.718 E7.3201
G1 X76.756 Y79.574 E7.37443
G1 X77.544 Y79.21 E7.46277
G1 X78.033 Y78.883 E7.52264
G1 X78.471 Y78.502 E7.58172
G1 X78.851 Y78.076 E7.63982
G1 X79.187 Y77.585 E7.70038
G1 X79.452 Y77.071 E7.75923
G1 X79.648 Y76.524 E7.81837
G1 X79.773 Y75.965 E7.87667
G1 X79.836 Y75.283 E7.94637
G1 X79.839 Y44.98 E11.03049
G1 X79.802 Y44.362 E11.0935
G1 X79.729 Y43.863 E11.14483
G1 X79.558 Y43.227 E11.21186
G1 X79.351 Y42.736 E11.26609
G1 X79.053 Y42.221 E11.32665
G1 X78.698 Y41.756 E11.38619
G1 X78.289 Y41.341 E11.44549
G1 X77.842 Y40.99 E11.50333
G1 X77.329 Y40.682 E11.56423
G1 X76.79 Y40.449 E11.624
G1 X76.274 Y40.297 E11.67874
G1 X75.659 Y40.199 E11.74213
G1 X75.069 Y40.164 E11.80228
G1 X44.881 Y40.161 E14.87469
G1 X44.358 Y40.198 E14.92805
G1 X43.862 Y40.27 E14.97906
G1 X43.237 Y40.439 E15.04496
G1 X42.73 Y40.653 E15.10097
G1 X42.224 Y40.945 E15.16043
G1 X41.749 Y41.306 E15.22115
G1 X41.34 Y41.709 E15.27959
G1 X41.147 Y41.956 E15.31149
G0 F1012.5 X40.987 Y42.161
G0 F7200 X41.277 Y42.444
G1 F1125 X42.439 Y41.281 E15.47881
G0 F7200 X45.42 Y40.563
G1 F1125 X40.563 Y45.42 E16.17789
G0 F7200 X40.563 Y47.683
G1 F1125 X47.683 Y40.563 E17.2027
G0 F7200 X49.945 Y40.563
G1 F1125 X40.563 Y49.945 E18.55308
G0 F7200 X40.563 Y52.208
G1 F1125 X52.208 Y40.563 E20.22918
G0 F7200 X54.471 Y40.563
G1 F1125 X40.563 Y54.471 E22.231
G0 F7200 X40.563 Y56.734
G1 F1125 X56.734 Y40.563 E24.55854
G0 F7200 X58.996 Y40.563
G1 F1125 X40.563 Y58.996 E27.21165
G0 F7200 X40.563 Y61.259
G1 F1125 X61.259 Y40.563 E30.19049
G0 F7200 X63.522 Y40.563
G1 F1125 X40.563 Y63.522 E33.49505
G0 F7200 X40.563 Y65.784
G1 F1125 X65.784 Y40.563 E37.12518
G0 F7200 X68.047 Y40.563
G1 F1125 X40.563 Y68.047 E41.08104
G0 F7200 X40.563 Y70.31
G1 F1125 X70.31 Y40.563 E45.36262
G0 F7200 X72.573 Y40.563
G1 F1125 X40.563 Y72.573 E49.96991
G0 F7200 X40.563 Y74.835
G1 F1125 X74.835 Y40.563 E54.90278
G0 F7200 X76.789 Y40.872
G1 F1125 X40.872 Y76.789 E60.07243
G0 F7200 X41.763 Y78.162
G1 F1125 X78.161 Y41.763 E65.31137
G0 F7200 X79.084 Y43.103
G1 F1125 X43.1 Y79.087 E70.49066
G0 F7200 X45.015 Y79.435
G1 F1125 X79.435 Y45.015 E75.44483
G0 F7200 X79.435 Y47.277
G1 F1125 X47.277 Y79.435 E80.07343
G0 F7200 X49.54 Y79.435
G1 F1125 X79.435 Y49.54 E84.37631
G0 F7200 X79.435 Y51.803
G1 F1125 X51.802 Y79.436 E88.35361
G0 F7200 X54.065 Y79.436
G1 F1125 X79.435 Y54.066 E92.00519
G0 F7200 X79.435 Y56.328
G1 F1125 X56.328 Y79.436 E95.33112
G0 F7200 X58.59 Y79.437
G1 F1125 X79.435 Y58.591 E98.33148
G0 F7200 X79.435 Y60.854
G1 F1125 X60.852 Y79.437 E101.00618
G0 F7200 X63.114 Y79.437
G1 F1125 X79.435 Y63.117 E103.35524
G0 F7200 X79.435 Y65.379
G1 F1125 X65.377 Y79.437 E105.37865
G0 F7200 X67.64 Y79.437
G1 F1125 X79.435 Y67.642 E107.07634
G0 F7200 X79.435 Y69.905
G1 F1125 X69.902 Y79.438 E108.44846
G0 F7200 X72.165 Y79.438
M104 S200
G1 F1125 X79.435 Y72.168 E109.49485
G0 F7200 X79.435 Y74.43
G1 F1125 X74.427 Y79.438 E110.21567
G0 F7200 X77.202 Y78.926
G1 F1125 X78.94 Y77.188 E110.46582
G1 F2400 E105.96582
G0 F90 X78.94 Y77.188 Z0.525
G0 F7200 X79.373 Y43.607
;TIME_ELAPSED:88.341558
;LAYER:-5
;TYPE:SUPPORT
G1 F2400 E110.46582
G1 F1125 X79.202 Y43.111 E110.49926
G1 X78.949 Y42.602 E110.53549
G1 X78.65 Y42.156 E110.56971
G1 X78.273 Y41.724 E110.60625
G1 X77.887 Y41.382 E110.63912
G1 X77.438 Y41.075 E110.67379
G1 X76.934 Y40.817 E110.70988
G1 X76.232 Y40.594 E110.75682
G1 X79.405 Y43.767 E111.04282
G1 X79.478 Y44.136 E111.06679
G1 X79.539 Y45.174 E111.13306
G1 X74.825 Y40.459 E111.558
G1 X73.552 Y40.459 E111.63914
G1 X79.539 Y46.447 E112.17882
G1 X79.539 Y47.719 E112.25989
G1 X72.279 Y40.459 E112.91426
G1 X71.006 Y40.459 E112.9954
G1 X79.539 Y48.992 E113.76452
G1 X79.538 Y50.264 E113.84559
G1 X69.734 Y40.459 E114.72931
G1 X68.461 Y40.459 E114.81045
G1 X79.538 Y51.537 E115.80891
G1 X79.538 Y52.81 E115.89004
G1 X67.188 Y40.459 E117.00325
G1 X65.915 Y40.459 E117.08439
G1 X79.538 Y54.082 E118.31229
G1 X79.538 Y55.355 E118.39342
G1 X64.642 Y40.459 E119.73607
G1 X63.37 Y40.459 E119.81714
G1 X79.538 Y56.627 E121.27443
G1 X79.538 Y57.9 E121.35557
G1 X62.097 Y40.459 E122.9276
G1 X60.824 Y40.459 E123.00874
G1 X79.537 Y59.172 E124.69542
G1 X79.537 Y60.445 E124.77656
G1 X59.551 Y40.459 E126.57799
G1 X58.279 Y40.459 E126.65906
G1 X79.537 Y61.718 E128.57518
G1 X79.536 Y62.99 E128.65625
G1 X57.006 Y40.459 E130.68703
G1 X55.733 Y40.459 E130.76816
G1 X79.536 Y64.263 E132.91368
G1 X79.536 Y65.536 E132.99481
G1 X54.46 Y40.459 E135.25507
G1 X53.187 Y40.459 E135.33621
G1 X79.536 Y66.808 E137.71116
G1 X79.536 Y68.08 E137.79223
G1 X51.915 Y40.459 E140.28184
G1 X50.642 Y40.459 E140.36297
G1 X79.536 Y69.353 E142.96732
G1 X79.536 Y70.626 E143.04845
G1 X49.369 Y40.459 E145.76754
G1 X48.096 Y40.459 E145.84868
G1 X79.535 Y71.898 E148.68242
G1 X79.535 Y73.171 E148.76355
G1 X46.823 Y40.459 E151.71203
G1 X45.551 Y40.459 E151.7931
G1 X79.535 Y74.444 E154.85628
G1 X79.5 Y75.682 E154.93521
G1 X44.322 Y40.504 E158.10597
G1 X44.136 Y40.52 E158.11786
G1 X43.607 Y40.626 E158.15225
G1 X43.284 Y40.738 E158.17404
G1 X79.261 Y76.716 E161.41685
G1 X79.184 Y76.933 E161.43153
G1 X78.838 Y77.566 E161.47751
G1 X42.434 Y41.162 E164.75876
G1 X42.156 Y41.347 E164.78005
G1 X41.725 Y41.725 E164.81658
G1 X78.273 Y78.273 E168.11082
G1 X77.834 Y78.658 E168.14804
G1 X77.564 Y78.837 E168.16868
G1 X41.16 Y42.433 E171.44994
G1 X41.07 Y42.566 E171.46018
G1 X40.737 Y43.283 E171.51056
G1 X76.709 Y79.255 E174.75288
G1 X76.178 Y79.425 E174.78842
G1 X75.666 Y79.485 E174.82127
G1 X40.498 Y44.317 E177.99112
G1 X40.464 Y44.706 E178.01601
G1 X40.463 Y45.554 E178.07006
G1 X74.447 Y79.538 E181.13319
G1 X73.174 Y79.538 E181.21432
G1 X40.463 Y46.827 E184.16271
G1 X40.463 Y48.1 E184.24385
G1 X71.901 Y79.538 E187.0775
G1 X70.628 Y79.538 E187.15863
G1 X40.463 Y49.373 E189.87754
G1 X40.462 Y50.645 E189.95861
G1 X69.355 Y79.538 E192.56287
G1 X68.082 Y79.537 E192.644
G1 X40.462 Y51.917 E195.13352
G1 X40.462 Y53.19 E195.21465
G1 X66.809 Y79.537 E197.58942
G1 X65.536 Y79.537 E197.67056
G1 X40.462 Y54.463 E199.93059
G1 X40.462 Y55.735 E200.01166
G1 X64.263 Y79.537 E202.157
G1 X62.991 Y79.537 E202.23807
G1 X40.462 Y57.008 E204.26871
G1 X40.462 Y58.281 E204.34984
G1 X61.717 Y79.536 E206.26565
G1 X60.444 Y79.536 E206.34679
G1 X40.462 Y59.553 E208.1479
G1 X40.461 Y60.826 E208.22904
G1 X59.172 Y79.536 E209.9155
G1 X57.899 Y79.536 E209.99663
G1 X40.461 Y62.098 E211.5684
G1 X40.461 Y63.371 E211.64953
G1 X56.625 Y79.536 E213.10651
G1 X55.353 Y79.536 E213.18758
G1 X40.461 Y64.644 E214.52987
G1 X40.46 Y65.916 E214.61094
G1 X54.08 Y79.536 E215.83857
G1 X52.807 Y79.536 E215.9197
G1 X40.46 Y67.189 E217.03259
G1 X40.46 Y68.462 E217.11373
G1 X51.534 Y79.536 E218.11188
G1 X50.261 Y79.535 E218.19301
G1 X40.46 Y69.734 E219.07642
G1 X40.459 Y71.006 E219.15749
G1 X48.988 Y79.535 E219.92625
G1 X47.715 Y79.535 E220.00738
G1 X40.459 Y72.279 E220.6614
G1 X40.459 Y73.552 E220.74253
G1 X46.442 Y79.535 E221.28181
G1 X45.169 Y79.535 E221.36294
G1 X40.459 Y74.825 E221.78748
G1 X40.468 Y75.286 E221.81686
G1 X40.594 Y76.232 E221.87769
G1 X43.766 Y79.404 E222.1636
G1 X43.545 Y79.354 E222.17804
G1 X43.064 Y79.181 E222.21062
G1 X42.56 Y78.923 E222.2467
G1 X42.112 Y78.617 E222.28128
G1 X41.724 Y78.273 E222.31433
G1 X41.348 Y77.841 E222.35083
G1 X41.044 Y77.387 E222.38565
G1 X40.8 Y76.898 E222.42049
G1 X40.761 Y76.785 E222.4281
G0 F1012.5 X40.626 Y76.391
G1 F2400 E217.9281
G0 F90 X40.626 Y76.391 Z0.656
G0 F7200 X40.657 Y42.992
;TIME_ELAPSED:183.090473
;LAYER:-4
;TYPE:SUPPORT-INTERFACE
G1 F2400 E222.4281
G1 F1500 X42.987 Y40.662 E222.49092
G1 X42.528 Y40.89 E222.50069
G1 X42.036 Y41.218 E222.51196
G1 X41.621 Y41.58 E222.52246
G1 X41.242 Y42.005 E222.53331
G1 X40.923 Y42.471 E222.54408
G1 X40.657 Y42.992 E222.55523
G1 X40.424 Y43.721 E222.56982
G1 X43.719 Y40.426 E222.65864
G1 X44.312 Y40.327 E222.6701
G1 X40.324 Y44.316 E222.77762
G1 X40.288 Y44.846 E222.78775
G1 X44.848 Y40.287 E222.91067
G1 X45.345 Y40.285 E222.92014
G1 X40.288 Y45.341 E223.05645
G1 X40.288 Y45.836 E223.06589
G1 X45.84 Y40.285 E223.21555
G1 X46.335 Y40.285 E223.22498
G1 X40.288 Y46.331 E223.38798
G1 X40.288 Y46.826 E223.39742
G1 X46.83 Y40.285 E223.57377
G1 X47.325 Y40.285 E223.5832
G1 X40.288 Y47.321 E223.77289
G1 X40.288 Y47.816 E223.78233
G1 X47.82 Y40.285 E223.98536
G1 X48.315 Y40.285 E223.9948
G1 X40.288 Y48.311 E224.21118
G1 X40.288 Y48.806 E224.22061
G1 X48.81 Y40.285 E224.45034
G1 X49.305 Y40.285 E224.45977
G1 X40.288 Y49.301 E224.70284
G1 X40.288 Y49.797 E224.71229
G1 X49.8 Y40.285 E224.96872
G1 X50.295 Y40.285 E224.97815
G1 X40.288 Y50.292 E225.24792
G1 X40.288 Y50.787 E225.25736
G1 X50.79 Y40.285 E225.54047
G1 X51.284 Y40.285 E225.54989
G1 X40.288 Y51.282 E225.84633
G1 X40.288 Y51.777 E225.85577
G1 X51.779 Y40.285 E226.16556
G1 X52.274 Y40.285 E226.17499
G1 X40.288 Y52.272 E226.49813
G1 X40.288 Y52.767 E226.50756
G1 X52.769 Y40.285 E226.84404
G1 X53.264 Y40.285 E226.85347
G1 X40.288 Y53.262 E227.2033
G1 X40.288 Y53.757 E227.21273
G1 X53.759 Y40.285 E227.5759
G1 X54.254 Y40.285 E227.58533
G1 X40.288 Y54.252 E227.96184
G1 X40.288 Y54.747 E227.97128
G1 X54.749 Y40.285 E228.36113
G1 X55.244 Y40.285 E228.37057
G1 X40.287 Y55.242 E228.77378
G1 X40.287 Y55.737 E228.78321
G1 X55.739 Y40.285 E229.19977
G1 X56.234 Y40.285 E229.20921
G1 X40.287 Y56.232 E229.63911
G1 X40.287 Y56.727 E229.64854
G1 X56.729 Y40.285 E230.09179
G1 X57.223 Y40.286 E230.1012
G1 X40.287 Y57.222 E230.55776
G1 X40.287 Y57.717 E230.5672
G1 X57.718 Y40.286 E231.03711
G1 X58.213 Y40.286 E231.04654
G1 X40.287 Y58.212 E231.52979
G1 X40.287 Y58.707 E231.53923
G1 X58.708 Y40.286 E232.03582
G1 X59.203 Y40.286 E232.04526
G1 X40.287 Y59.202 E232.55519
G1 X40.287 Y59.697 E232.56463
G1 X59.698 Y40.286 E233.08791
G1 X60.193 Y40.286 E233.09735
G1 X40.286 Y60.193 E233.634
G1 X40.286 Y60.688 E233.64344
G1 X60.688 Y40.286 E234.19344
G1 X61.183 Y40.286 E234.20287
G1 X40.286 Y61.183 E234.76621
G1 X40.286 Y61.678 E234.77565
G1 X61.678 Y40.286 E235.35234
G1 X62.173 Y40.286 E235.36177
G1 X40.286 Y62.173 E235.9518
G1 X40.286 Y62.668 E235.96124
G1 X62.668 Y40.286 E236.56461
G1 X63.162 Y40.287 E236.57403
G1 X40.286 Y63.163 E237.19072
G1 X40.286 Y63.657 E237.20014
G1 X63.657 Y40.287 E237.83016
G1 X64.152 Y40.287 E237.8396
G1 X40.286 Y64.152 E238.48297
G1 X40.286 Y64.647 E238.4924
G1 X64.647 Y40.287 E239.14911
G1 X65.142 Y40.287 E239.15855
G1 X40.285 Y65.143 E239.82863
G1 X40.285 Y65.638 E239.83807
G1 X65.637 Y40.287 E240.52149
G1 X66.132 Y40.287 E240.53093
G1 X40.285 Y66.133 E241.2277
G1 X40.285 Y66.628 E241.23714
G1 X66.627 Y40.287 E241.94725
G1 X67.122 Y40.287 E241.95669
G1 X40.285 Y67.123 E242.68015
G1 X40.285 Y67.618 E242.68958
G1 X67.617 Y40.287 E243.42639
G1 X68.112 Y40.287 E243.43582
G1 X40.285 Y68.113 E244.18597
G1 X40.285 Y68.608 E244.19541
G1 X68.607 Y40.287 E244.9589
G1 X69.102 Y40.287 E244.96833
G1 X40.285 Y69.103 E245.74517
G1 X40.285 Y69.598 E245.75461
G1 X69.596 Y40.288 E246.54476
G1 X70.091 Y40.288 E246.5542
G1 X40.285 Y70.094 E247.35771
G1 X40.285 Y70.589 E247.36714
G1 X70.586 Y40.288 E248.184
G1 X71.081 Y40.288 E248.19343
G1 X40.285 Y71.084 E249.02363
G1 X40.285 Y71.579 E249.03307
G1 X71.576 Y40.288 E249.87661
G1 X72.071 Y40.288 E249.88605
G1 X40.285 Y72.073 E250.74293
G1 X40.285 Y72.568 E250.75236
G1 X72.566 Y40.288 E251.62258
G1 X73.061 Y40.288 E251.63202
G1 X40.285 Y73.063 E252.51558
G1 X40.285 Y73.558 E252.52501
G1 X73.556 Y40.288 E253.42192
G1 X74.051 Y40.288 E253.43136
G1 X40.285 Y74.053 E254.34161
G1 X40.285 Y74.548 E254.35105
G1 X74.546 Y40.288 E255.27464
G1 X75.041 Y40.288 E255.28408
G1 X40.285 Y75.043 E256.22102
G1 X40.312 Y75.511 E256.22995
G1 X75.514 Y40.309 E257.17893
G1 X75.965 Y40.353 E257.18757
G1 X40.363 Y75.955 E258.14733
G1 X40.443 Y76.37 E258.15539
G1 X76.368 Y40.445 E259.12385
G1 X76.745 Y40.563 E259.13138
G1 X40.563 Y76.745 E260.10678
G1 X40.706 Y77.097 E260.11402
G1 X77.1 Y40.703 E261.09513
G1 X77.427 Y40.871 E261.10214
G1 X40.87 Y77.428 E262.08765
G1 X41.064 Y77.729 E262.09447
G1 X77.73 Y41.063 E263.08292
G1 X78.021 Y41.267 E263.08969
G1 X41.269 Y78.019 E264.08045
G1 X41.5 Y78.283 E264.08714
G1 X78.283 Y41.5 E265.07874
G1 X78.529 Y41.748 E265.0854
G1 X41.748 Y78.529 E266.07694
G1 X42.012 Y78.761 E266.08364
G1 X78.759 Y42.014 E267.07427
G1 X78.96 Y42.308 E267.08105
G1 X42.306 Y78.962 E268.06917
G1 X42.614 Y79.149 E268.07604
G1 X79.149 Y42.613 E269.06097
G1 X79.314 Y42.944 E269.06802
G1 X42.941 Y79.316 E270.04855
G1 X43.301 Y79.452 E270.05589
G1 X79.452 Y43.301 E271.03045
G1 X79.565 Y43.682 E271.03802
G1 X43.682 Y79.565 E272.00536
G1 X44.089 Y79.654 E272.0133
G1 X79.647 Y44.095 E272.97189
G1 X79.692 Y44.546 E272.98053
G1 X44.543 Y79.695 E273.92807
G1 X45.022 Y79.711 E273.93721
G1 X79.713 Y45.02 E274.87241
G1 X79.713 Y45.515 E274.88185
G1 X45.517 Y79.711 E275.8037
G1 X46.012 Y79.711 E275.81314
G1 X79.713 Y46.01 E276.72165
G1 X79.713 Y46.504 E276.73107
G1 X46.507 Y79.711 E277.62625
G1 X47.002 Y79.711 E277.63569
G1 X79.713 Y46.999 E278.51753
G1 X79.713 Y47.494 E278.52696
G1 X47.497 Y79.711 E279.39546
G1 X47.992 Y79.711 E279.40489
G1 X79.713 Y47.989 E280.26004
G1 X79.713 Y48.484 E280.26948
G1 X48.487 Y79.711 E281.11128
G1 X48.981 Y79.711 E281.1207
G1 X79.713 Y48.979 E281.94917
G1 X79.713 Y49.474 E281.95861
G1 X49.476 Y79.711 E282.77374
G1 X49.971 Y79.711 E282.78318
G1 X79.712 Y49.97 E283.58493
G1 X79.712 Y50.465 E283.59437
G1 X50.466 Y79.711 E284.38279
G1 X50.961 Y79.712 E284.39222
G1 X79.712 Y50.96 E285.16731
G1 X79.712 Y51.455 E285.17674
G1 X51.456 Y79.712 E285.93848
G1 X51.951 Y79.712 E285.94792
G1 X79.712 Y51.95 E286.69631
G1 X79.712 Y52.445 E286.70575
G1 X52.446 Y79.712 E287.4408
G1 X52.941 Y79.712 E287.45024
G1 X79.712 Y52.94 E288.17194
G1 X79.712 Y53.435 E288.18138
G1 X53.436 Y79.712 E288.88974
G1 X53.931 Y79.712 E288.89918
G1 X79.712 Y53.93 E289.5942
G1 X79.712 Y54.425 E289.60363
G1 X54.426 Y79.712 E290.28531
G1 X54.92 Y79.712 E290.29472
G1 X79.712 Y54.92 E290.96307
G1 X79.712 Y55.415 E290.9725
G1 X55.415 Y79.712 E291.6275
G1 X55.91 Y79.712 E291.63694
G1 X79.712 Y55.91 E292.27859
G1 X79.712 Y56.405 E292.28803
G1 X56.405 Y79.712 E292.91634
G1 X56.9 Y79.712 E292.92578
G1 X79.712 Y56.9 E293.54074
G1 X79.712 Y57.395 E293.55018
G1 X57.395 Y79.712 E294.1518
G1 X57.89 Y79.712 E294.16124
G1 X79.712 Y57.89 E294.74952
G1 X79.712 Y58.385 E294.75895
G1 X58.385 Y79.712 E295.33389
G1 X58.88 Y79.712 E295.34332
G1 X79.712 Y58.88 E295.90491
G1 X79.712 Y59.375 E295.91435
G1 X59.375 Y79.712 E296.46259
G1 X59.87 Y79.712 E296.47203
G1 X79.712 Y59.87 E297.00693
G1 X79.711 Y60.366 E297.01639
G1 X60.364 Y79.712 E297.53793
G1 X60.859 Y79.712 E297.54737
G1 X79.711 Y60.861 E298.05556
G1 X79.711 Y61.356 E298.065
